svgs/introduction/introduction899.svg

<svg xmlns="http://www.w3.org/2000/svg" width="899" height="450" xmlns:v="https://vecta.io/nano"><path fill="#0b0015" d="M0 0h899v450H0z"/><path d="M504 0l-95 38 124 37-21 38-24 37 9 38-89 37 1 38 23 37 126 38 12 37-64 38 12 37H0v-37-38-37-38-37-38-37-38-37-38-37V0z" fill="#26003d"/><path d="M426 0l52 38-58 37-28 38 71 37-13 38 21 37-84 38-15 37 105 38-35 37 30 38 6 37H0v-37-38-37-38-37-38-37-38-37-38-37V0z" fill="#2f004e"/><path d="M426 0l-64 38 35 37 24 38-11 37-71 38-24 37 111 38-83 37-27 38 9 37 106 38-54 37H0v-37-38-37-38-37-38-37-38-37-38-37V0z" fill="#380060"/><path d="M259 0l17 38 38 37-1 38 59 37-24 38-63 37 2 38 72 37-64 38-23 37-19 38 73 37H0v-37-38-37-38-37-38-37-38-37-38-37V0z" fill="#410072"/><path d="M305 0l-26 38 17 37-82 38-2 37 37 38 9 37-49 38 27 37-38 38 78 37-17 38-48 37H0v-37-38-37-38-37-38-37-38-37-38-37V0z" fill="#490086"/><path d="M230 0l-62 38-12 37 6 38-10 37 25 38-39 37 11 38 23 37-18 38 85 37-77 38 11 37H0v-37-38-37-38-37-38-37-38-37-38-37V0z" fill="#51009a"/><path d="M103 0l60 38-73 37 11 38 60 37-54 38 30 37 18 38-12 37 26 38-49 37-21 38 23 37H0v-37-38-37-38-37-38-37-38-37-38-37V0z" fill="#5800af"/><path d="M94 0L66 38l33 37-54 38 62 37-50 38 33 37-12 38-12 37-35 38 55 37-6 38 20 37H0v-37-38-37-38-37-38-37-38-37-38-37V0z" fill="#5f00c5"/></svg>

<svg id="visual" viewBox="0 0 899 450" width="899" height="450" xmlns="http://www.w3.org/2000/svg" xmlns:xlink="http://www.w3.org/1999/xlink" version="1.1"><rect x="0" y="0" width="899" height="450" fill="#0B0015"></rect><path d="M504 0L409 38L533 75L512 113L488 150L497 188L408 225L409 263L432 300L558 338L570 375L506 413L518 450L0 450L0 413L0 375L0 338L0 300L0 263L0 225L0 188L0 150L0 113L0 75L0 38L0 0Z" fill="#26003d"></path><path d="M426 0L478 38L420 75L392 113L463 150L450 188L471 225L387 263L372 300L477 338L442 375L472 413L478 450L0 450L0 413L0 375L0 338L0 300L0 263L0 225L0 188L0 150L0 113L0 75L0 38L0 0Z" fill="#2f004e"></path><path d="M426 0L362 38L397 75L421 113L410 150L339 188L315 225L426 263L343 300L316 338L325 375L431 413L377 450L0 450L0 413L0 375L0 338L0 300L0 263L0 225L0 188L0 150L0 113L0 75L0 38L0 0Z" fill="#380060"></path><path d="M259 0L276 38L314 75L313 113L372 150L348 188L285 225L287 263L359 300L295 338L272 375L253 413L326 450L0 450L0 413L0 375L0 338L0 300L0 263L0 225L0 188L0 150L0 113L0 75L0 38L0 0Z" fill="#410072"></path><path d="M305 0L279 38L296 75L214 113L212 150L249 188L258 225L209 263L236 300L198 338L276 375L259 413L211 450L0 450L0 413L0 375L0 338L0 300L0 263L0 225L0 188L0 150L0 113L0 75L0 38L0 0Z" fill="#490086"></path><path d="M230 0L168 38L156 75L162 113L152 150L177 188L138 225L149 263L172 300L154 338L239 375L162 413L173 450L0 450L0 413L0 375L0 338L0 300L0 263L0 225L0 188L0 150L0 113L0 75L0 38L0 0Z" fill="#51009a"></path><path d="M103 0L163 38L90 75L101 113L161 150L107 188L137 225L155 263L143 300L169 338L120 375L99 413L122 450L0 450L0 413L0 375L0 338L0 300L0 263L0 225L0 188L0 150L0 113L0 75L0 38L0 0Z" fill="#5800af"></path><path d="M94 0L66 38L99 75L45 113L107 150L57 188L90 225L78 263L66 300L31 338L86 375L80 413L100 450L0 450L0 413L0 375L0 338L0 300L0 263L0 225L0 188L0 150L0 113L0 75L0 38L0 0Z" fill="#5f00c5"></path></svg>
